X: 21784
T: King's Fancy, The
R: jig
M: 6/8
K: Dmajor
e|f2d dcd|Bgg Aff|Gee Fdd|eca bag|
fed dB=c|BgB AfA|GeG FAd|cBc d2:|
fdB B^AB|dcB fdB|cAF edc|fgf edc|
fdB B^AB|dcB fdB|cAF fag|fed ecA||
f2d dcd|Bgg Aff|Gee Fdd|eca bag|
fed dB=c|BgB AfA|GeG FAd|cBc d2:|

